Sweet-Rainbow/icons/spotify-client.svg

<?xml version="1.0" encoding="UTF-8" standalone="no"?>
<!-- Generator: Gravit.io -->

<svg
   xmlns:dc="http://purl.org/dc/elements/1.1/"
   xmlns:cc="http://creativecommons.org/ns#"
   xmlns:rdf="http://www.w3.org/1999/02/22-rdf-syntax-ns#"
   xmlns:svg="http://www.w3.org/2000/svg"
   xmlns="http://www.w3.org/2000/svg"
   xmlns:sodipodi="http://sodipodi.sourceforge.net/DTD/sodipodi-0.dtd"
   xmlns:inkscape="http://www.inkscape.org/namespaces/inkscape"
   style="isolation:isolate"
   viewBox="0 0 48 48"
   width="48"
   height="48"
   version="1.1"
   id="svg30"
   sodipodi:docname="spotify-client.svg"
   inkscape:version="0.92.4 (5da689c313, 2019-01-14)">
  <metadata
     id="metadata36">
    <rdf:RDF>
      <cc:Work
         rdf:about="">
        <dc:format>image/svg+xml</dc:format>
        <dc:type
           rdf:resource="http://purl.org/dc/dcmitype/StillImage" />
        <dc:title></dc:title>
      </cc:Work>
    </rdf:RDF>
  </metadata>
  <defs
     id="defs34" />
  <sodipodi:namedview
     pagecolor="#ffffff"
     bordercolor="#666666"
     borderopacity="1"
     objecttolerance="10"
     gridtolerance="10"
     guidetolerance="10"
     inkscape:pageopacity="0"
     inkscape:pageshadow="2"
     inkscape:window-width="640"
     inkscape:window-height="480"
     id="namedview32"
     showgrid="false"
     inkscape:zoom="39.153656"
     inkscape:cx="18.994082"
     inkscape:cy="24"
     inkscape:current-layer="svg30" />
  <linearGradient
     id="_lgradient_2"
     x1="0"
     y1="0.5"
     x2="1"
     y2="0.5"
     gradientTransform="matrix(44,0,0,44,2,2)"
     gradientUnits="userSpaceOnUse">
    <stop
       offset="0%"
       stop-opacity="1"
       style="stop-color:rgb(67,233,123)"
       id="stop2" />
    <stop
       offset="97.82608695652173%"
       stop-opacity="1"
       style="stop-color:rgb(56,249,215)"
       id="stop4" />
  </linearGradient>
  <linearGradient
     id="_lgradient_3"
     x1="0"
     y1="0.5"
     x2="1"
     y2="0.5"
     gradientTransform="matrix(22.455,1.966,-0.461,5.891,12.722,26.603)"
     gradientUnits="userSpaceOnUse">
    <stop
       offset="0%"
       stop-opacity="1"
       style="stop-color:rgb(67,233,123)"
       id="stop9" />
    <stop
       offset="97.82608695652173%"
       stop-opacity="1"
       style="stop-color:rgb(56,249,215)"
       id="stop11" />
  </linearGradient>
  <linearGradient
     id="_lgradient_4"
     x1="0"
     y1="0.5"
     x2="1"
     y2="0.5"
     gradientTransform="matrix(26.305,2.303,-0.461,5.891,11.305,20.458)"
     gradientUnits="userSpaceOnUse">
    <stop
       offset="0%"
       stop-opacity="1"
       style="stop-color:rgb(67,233,123)"
       id="stop16" />
    <stop
       offset="97.82608695652173%"
       stop-opacity="1"
       style="stop-color:rgb(56,249,215)"
       id="stop18" />
  </linearGradient>
  <linearGradient
     id="_lgradient_5"
     x1="0"
     y1="0.5"
     x2="1"
     y2="0.5"
     gradientTransform="matrix(29.133,2.55,-0.461,5.891,9.888,14.314)"
     gradientUnits="userSpaceOnUse">
    <stop
       offset="0%"
       stop-opacity="1"
       style="stop-color:rgb(67,233,123)"
       id="stop23" />
    <stop
       offset="97.82608695652173%"
       stop-opacity="1"
       style="stop-color:rgb(56,249,215)"
       id="stop25" />
  </linearGradient>
  <g
     id="g847"
     transform="matrix(1.0909091,0,0,1.0909091,-2.1818184,-2.1818184)">
    <path
       id="path7"
       d="m 38.95,34.02 v 0 c 0.613,-0.916 1.856,-1.16 2.775,-0.545 v 0 c 0.919,0.615 1.163,1.859 0.545,2.775 v 0 C 38.19,42.33 31.33,46 24,46 18.17,46 12.57,43.68 8.44,39.56 4.32,35.43 2,29.83 2,24 2,18.17 4.32,12.57 8.44,8.44 12.57,4.32 18.17,2 24,2 29.83,2 35.43,4.32 39.56,8.44 43.68,12.57 46,18.17 46,24 c 0,0.01 0,0.02 0,0.03 l -0.01,0.51 v 0 c -0.011,1.104 -0.916,1.989 -2.02,1.975 v 0 C 42.866,26.501 41.979,25.594 41.99,24.49 v 0 L 42,23.99 C 42,19.22 40.1,14.64 36.72,11.27 33.35,7.9 28.77,6 24,6 19.23,6 14.65,7.9 11.27,11.27 7.9,14.65 6,19.23 6,24 6,28.77 7.9,33.35 11.27,36.73 14.65,40.1 19.23,42 24,42 c 5.99,0 11.61,-3 14.95,-7.98 z"
       inkscape:connector-curvature="0"
       style="fill:url(#_lgradient_2)" />
    <path
       id="path14"
       d="m 15.097,31.669 v 0 c -0.687,0.399 -1.553,0.135 -1.933,-0.591 v 0 c -0.381,-0.726 -0.133,-1.639 0.553,-2.039 v 0 c 0.617,-0.357 1.275,-0.641 1.946,-0.843 0.768,-0.234 1.56,-0.405 2.356,-0.516 1.881,-0.257 3.792,-0.3 5.685,-0.114 l 0.207,0.018 c 1.971,0.172 3.922,0.584 5.808,1.221 0.796,0.26 1.567,0.598 2.305,0.994 0.647,0.338 1.26,0.763 1.809,1.262 v 0 c 0.592,0.539 0.658,1.487 0.147,2.115 v 0 c -0.51,0.628 -1.404,0.701 -1.996,0.162 v 0 c -0.372,-0.344 -0.786,-0.631 -1.223,-0.86 -0.611,-0.324 -1.254,-0.601 -1.901,-0.819 -1.683,-0.568 -3.42,-0.931 -5.183,-1.085 0,0 -0.009,-0.001 -0.009,-0.001 l -0.217,-0.019 c 0,0 0,0 0,0 -1.687,-0.158 -3.388,-0.126 -5.067,0.098 -0.662,0.093 -1.309,0.237 -1.951,0.431 -0.466,0.14 -0.918,0.331 -1.336,0.586 z"
       inkscape:connector-curvature="0"
       style="fill:url(#_lgradient_3)" />
    <path
       id="path21"
       d="m 14.151,25.565 v 0 c -0.797,0.39 -1.814,0.112 -2.269,-0.62 v 0 c -0.455,-0.732 -0.177,-1.643 0.62,-2.032 v 0 c 0.717,-0.349 1.483,-0.623 2.266,-0.816 0.896,-0.222 1.82,-0.382 2.75,-0.481 2.198,-0.229 4.434,-0.244 6.652,-0.03 l 0.243,0.021 c 2.308,0.202 4.597,0.643 6.813,1.309 0.935,0.272 1.842,0.623 2.71,1.03 0.763,0.348 1.485,0.782 2.134,1.29 v 0 c 0.7,0.549 0.79,1.499 0.201,2.12 v 0 c -0.589,0.622 -1.635,0.681 -2.334,0.132 v 0 c -0.44,-0.35 -0.928,-0.643 -1.443,-0.879 -0.719,-0.334 -1.475,-0.621 -2.236,-0.848 -1.977,-0.594 -4.014,-0.983 -6.079,-1.164 0,0 -0.011,-0.001 -0.011,-0.001 l -0.254,-0.022 c 0,0 0,0 0,0 -1.976,-0.183 -3.967,-0.177 -5.929,0.023 -0.773,0.082 -1.529,0.217 -2.277,0.402 -0.544,0.133 -1.07,0.318 -1.557,0.566 z"
       inkscape:connector-curvature="0"
       style="fill:url(#_lgradient_4)" />
    <path
       id="path28"
       d="m 13.081,19.451 v 0 c -0.879,0.383 -2.007,0.095 -2.517,-0.642 v 0 c -0.51,-0.736 -0.21,-1.645 0.67,-2.028 v 0 c 0.79,-0.342 1.636,-0.609 2.5,-0.795 0.99,-0.214 2.011,-0.365 3.041,-0.456 2.43,-0.209 4.904,-0.203 7.361,0.032 l 0.269,0.024 c 2.556,0.224 5.094,0.687 7.552,1.373 1.037,0.282 2.043,0.641 3.008,1.056 0.847,0.355 1.649,0.797 2.373,1.312 v 0 c 0.778,0.555 0.886,1.507 0.24,2.123 v 0 c -0.647,0.616 -1.804,0.666 -2.583,0.11 v 0 c -0.489,-0.354 -1.032,-0.652 -1.604,-0.893 -0.799,-0.341 -1.638,-0.635 -2.481,-0.869 -2.194,-0.614 -4.452,-1.022 -6.739,-1.222 0,0 -0.012,-0.001 -0.012,-0.001 L 23.877,18.55 c 0,0 0,0 0,0 -2.188,-0.202 -4.391,-0.214 -6.561,-0.033 -0.855,0.076 -1.69,0.204 -2.517,0.382 -0.601,0.128 -1.182,0.308 -1.718,0.552 z"
       inkscape:connector-curvature="0"
       style="fill:url(#_lgradient_5)" />
  </g>
</svg>

<?xml version="1.0" standalone="no"?><!-- Generator: Gravit.io --><svg xmlns="http://www.w3.org/2000/svg" xmlns:xlink="http://www.w3.org/1999/xlink" style="isolation:isolate" viewBox="0 0 48 48" width="48px" height="48px"><linearGradient id="_lgradient_2" x1="0" y1="0.5" x2="1" y2="0.5" gradientTransform="matrix(44,0,0,44,2,2)" gradientUnits="userSpaceOnUse"><stop offset="0%" stop-opacity="1" style="stop-color:rgb(67,233,123)"/><stop offset="97.82608695652173%" stop-opacity="1" style="stop-color:rgb(56,249,215)"/></linearGradient><path d=" M 38.95 34.02 L 38.95 34.02 C 39.563 33.104 40.806 32.86 41.725 33.475 L 41.725 33.475 C 42.644 34.09 42.888 35.334 42.27 36.25 L 42.27 36.25 C 38.19 42.33 31.33 46 24 46 C 18.17 46 12.57 43.68 8.44 39.56 C 4.32 35.43 2 29.83 2 24 C 2 18.17 4.32 12.57 8.44 8.44 C 12.57 4.32 18.17 2 24 2 C 29.83 2 35.43 4.32 39.56 8.44 C 43.68 12.57 46 18.17 46 24 C 46 24.01 46 24.02 46 24.03 L 45.99 24.54 L 45.99 24.54 C 45.979 25.644 45.074 26.529 43.97 26.515 L 43.97 26.515 C 42.866 26.501 41.979 25.594 41.99 24.49 L 41.99 24.49 L 42 23.99 C 42 19.22 40.1 14.64 36.72 11.27 C 33.35 7.9 28.77 6 24 6 C 19.23 6 14.65 7.9 11.27 11.27 C 7.9 14.65 6 19.23 6 24 C 6 28.77 7.9 33.35 11.27 36.73 C 14.65 40.1 19.23 42 24 42 C 29.99 42 35.61 39 38.95 34.02 Z " fill="url(#_lgradient_2)"/><linearGradient id="_lgradient_3" x1="0" y1="0.5" x2="1" y2="0.5" gradientTransform="matrix(22.455,1.966,-0.461,5.891,12.722,26.603)" gradientUnits="userSpaceOnUse"><stop offset="0%" stop-opacity="1" style="stop-color:rgb(67,233,123)"/><stop offset="97.82608695652173%" stop-opacity="1" style="stop-color:rgb(56,249,215)"/></linearGradient><path d=" M 15.097 31.669 L 15.097 31.669 C 14.41 32.068 13.544 31.804 13.164 31.078 L 13.164 31.078 C 12.783 30.352 13.031 29.439 13.717 29.039 L 13.717 29.039 C 14.334 28.682 14.992 28.398 15.663 28.196 C 16.431 27.962 17.223 27.791 18.019 27.68 C 19.9 27.423 21.811 27.38 23.704 27.566 L 23.911 27.584 C 25.882 27.756 27.833 28.168 29.719 28.805 C 30.515 29.065 31.286 29.403 32.024 29.799 C 32.671 30.137 33.284 30.562 33.833 31.061 L 33.833 31.061 C 34.425 31.6 34.491 32.548 33.98 33.176 L 33.98 33.176 C 33.47 33.804 32.576 33.877 31.984 33.338 L 31.984 33.338 C 31.612 32.994 31.198 32.707 30.761 32.478 C 30.15 32.154 29.507 31.877 28.86 31.659 C 27.177 31.091 25.44 30.728 23.677 30.574 C 23.677 30.574 23.668 30.573 23.668 30.573 L 23.451 30.554 C 23.451 30.554 23.451 30.554 23.451 30.554 C 21.764 30.396 20.063 30.428 18.384 30.652 C 17.722 30.745 17.075 30.889 16.433 31.083 C 15.967 31.223 15.515 31.414 15.097 31.669 Z " fill="url(#_lgradient_3)"/><linearGradient id="_lgradient_4" x1="0" y1="0.5" x2="1" y2="0.5" gradientTransform="matrix(26.305,2.303,-0.461,5.891,11.305,20.458)" gradientUnits="userSpaceOnUse"><stop offset="0%" stop-opacity="1" style="stop-color:rgb(67,233,123)"/><stop offset="97.82608695652173%" stop-opacity="1" style="stop-color:rgb(56,249,215)"/></linearGradient><path d=" M 14.151 25.565 L 14.151 25.565 C 13.354 25.955 12.337 25.677 11.882 24.945 L 11.882 24.945 C 11.427 24.213 11.705 23.302 12.502 22.913 L 12.502 22.913 C 13.219 22.564 13.985 22.29 14.768 22.097 C 15.664 21.875 16.588 21.715 17.518 21.616 C 19.716 21.387 21.952 21.372 24.17 21.586 L 24.413 21.607 C 26.721 21.809 29.01 22.25 31.226 22.916 C 32.161 23.188 33.068 23.539 33.936 23.946 C 34.699 24.294 35.421 24.728 36.07 25.236 L 36.07 25.236 C 36.77 25.785 36.86 26.735 36.271 27.356 L 36.271 27.356 C 35.682 27.978 34.636 28.037 33.937 27.488 L 33.937 27.488 C 33.497 27.138 33.009 26.845 32.494 26.609 C 31.775 26.275 31.019 25.988 30.258 25.761 C 28.281 25.167 26.244 24.778 24.179 24.597 C 24.179 24.597 24.168 24.596 24.168 24.596 L 23.914 24.574 C 23.914 24.574 23.914 24.574 23.914 24.574 C 21.938 24.391 19.947 24.397 17.985 24.597 C 17.212 24.679 16.456 24.814 15.708 24.999 C 15.164 25.132 14.638 25.317 14.151 25.565 Z " fill="url(#_lgradient_4)"/><linearGradient id="_lgradient_5" x1="0" y1="0.5" x2="1" y2="0.5" gradientTransform="matrix(29.133,2.55,-0.461,5.891,9.888,14.314)" gradientUnits="userSpaceOnUse"><stop offset="0%" stop-opacity="1" style="stop-color:rgb(67,233,123)"/><stop offset="97.82608695652173%" stop-opacity="1" style="stop-color:rgb(56,249,215)"/></linearGradient><path d=" M 13.081 19.451 L 13.081 19.451 C 12.202 19.834 11.074 19.546 10.564 18.809 L 10.564 18.809 C 10.054 18.073 10.354 17.164 11.234 16.781 L 11.234 16.781 C 12.024 16.439 12.87 16.172 13.734 15.986 C 14.724 15.772 15.745 15.621 16.775 15.53 C 19.205 15.321 21.679 15.327 24.136 15.562 L 24.405 15.586 C 26.961 15.81 29.499 16.273 31.957 16.959 C 32.994 17.241 34 17.6 34.965 18.015 C 35.812 18.37 36.614 18.812 37.338 19.327 L 37.338 19.327 C 38.116 19.882 38.224 20.834 37.578 21.45 L 37.578 21.45 C 36.931 22.066 35.774 22.116 34.995 21.56 L 34.995 21.56 C 34.506 21.206 33.963 20.908 33.391 20.667 C 32.592 20.326 31.753 20.032 30.91 19.798 C 28.716 19.184 26.458 18.776 24.171 18.576 C 24.171 18.576 24.159 18.575 24.159 18.575 L 23.877 18.55 C 23.877 18.55 23.877 18.55 23.877 18.55 C 21.689 18.348 19.486 18.336 17.316 18.517 C 16.461 18.593 15.626 18.721 14.799 18.899 C 14.198 19.027 13.617 19.207 13.081 19.451 Z " fill="url(#_lgradient_5)"/></svg>
